X:1
T:Title
%%score [ ( 1 2 ) ( 3 4 ) ] { ( 5 6 ) | ( 7 8 ) }
L:1/8
Q:1/4=120
M:4/4
K:D
V:1 treble nm="Midi_74"
V:2 treble 
V:3 bass nm="Midi_74"
V:4 bass 
V:5 treble nm="Org."
V:6 treble 
V:7 bass 
V:8 bass 
V:1
 (D6 E2) | F4 B4 | E8 || A8 | E4 A4 | B4 ^G4 | A8 || (=G6 A2) | B4 e4 | A8 || d8 | %11
"^William Henry Havergal\n(1793-1870)" A4 d4 | e4 c4 | d8 |] %14
V:2
 (D6 C2) | D4 D4 | C8 || (C6 D2) | E4 C4 | F4 (E2 D2) | C8 || (G6 F2) | G4 G4 | F8 || (F6 G2) | %11
 A4 F4 | G4 G4 | F8 |] %14
V:3
 A,8 | A,4 (G,2 B,2) | C8 || A,8 | A,4 A,4 | D4 B,4 | A,8 || D8 | D4 E4 | D8 || D8 | D4 D4 | %12
 B,4 A,4 | A,8 |] %14
V:4
 (F,6 E,2) | D,4 G,,4 | A,,8 || (A,,6 B,,2) | C,4 F,4 | B,,4 E,4 | A,,8 || (B,6 A,2) | G,4 C,4 | %9
 D,8 || (D,6 E,2) | F,4 B,4 | E,4 A,4 | D,8 |] %14
V:5
 D6 E2 | F4 B4 | E8 || A8 | E4 A4 | B4 [B,^G]4 | A8 || =G6 [FA]2 | B4 e4 | A8 || d8 | A4 d4 | %12
 e4 c4 | d8 |] %14
V:6
 D6 C2 | D4 D4 | C8 || C6 D2 | [A,E]4 C4 | [DF]4 E2 D2 | C8 || D8 | [DG]4 [EG]4 | [DF]8 || F6 G2 | %11
 D4 [DF]4 | [GB]4 [EG]4 | [DF]8 |] %14
V:7
 A,8 | x8 | x8 || x8 | x8 | x8 | x8 || x8 | x8 | x8 || x8 | x8 | x8 | x8 |] %14
V:8
 F,6 E,2 | D,4 G,,4 | A,,8 || A,,6 B,,2 | C,4 F,4 | B,,4 E,4 | A,,8 || B,6 A,2 | G,4 C,4 | D,8 || %10
 D,6 E,2 | F,4 B,4 | E,4 A,4 | D,8 |] %14

